src/assets/img/svg/toidukool.svg

<?xml version="1.0" encoding="UTF-8" standalone="no"?>
<svg
   width="25.349936"
   height="31.998236"
   viewBox="0 0 25.349936 31.998236"
   fill="none"
   version="1.1"
   id="svg244"
   sodipodi:docname="toidukool.svg"
   inkscape:version="1.2.2 (b0a8486541, 2022-12-01)"
   xmlns:inkscape="http://www.inkscape.org/namespaces/inkscape"
   xmlns:sodipodi="http://sodipodi.sourceforge.net/DTD/sodipodi-0.dtd"
   xmlns="http://www.w3.org/2000/svg"
   xmlns:svg="http://www.w3.org/2000/svg">
  <defs
     id="defs248" />
  <sodipodi:namedview
     id="namedview246"
     pagecolor="#ffffff"
     bordercolor="#000000"
     borderopacity="0.25"
     inkscape:showpageshadow="2"
     inkscape:pageopacity="0.0"
     inkscape:pagecheckerboard="0"
     inkscape:deskcolor="#d1d1d1"
     showgrid="false"
     inkscape:zoom="17.458333"
     inkscape:cx="4.124105"
     inkscape:cy="15.980907"
     inkscape:window-width="1920"
     inkscape:window-height="1008"
     inkscape:window-x="0"
     inkscape:window-y="0"
     inkscape:window-maximized="1"
     inkscape:current-layer="svg244" />
  <g
     id="g252"
     transform="translate(-11.320064,-7.9926753)">
    <path
       d="m 26.88,15.61 c -0.07,2.38 -0.66,4.42 -1.49,6.4 -0.68,1.62 -1.51,3.16 -2.76,4.43 -0.33,0.33 -0.45,0.65 -0.45,1.11 0.02,3.04 0,6.07 0.02,9.11 0.01,1.7 -1.02,2.71 -1.99,3.07 -2.07,0.77 -4.23,-0.72 -4.21,-3.03 0.03,-3.12 0,-6.24 0.01,-9.36 0,-0.32 -0.09,-0.54 -0.32,-0.77 -1.37,-1.37 -2.27,-3.05 -2.99,-4.82 -0.59,-1.43 -1,-2.92 -1.26,-4.45 -0.7,-4.23 1.74,-7.80998 5.34,-8.93998 4.43,-1.39 9.07,1.38 9.94,5.93998 0.09,0.5 0.13,1.01 0.16,1.31 z m -7.86,10.76 c 0,0 0.07,0 0.11,-0.01 0.04,-0.1 0.1,-0.2 0.13,-0.31 0.31,-1.35 0.68,-2.7 0.9,-4.07 0.23,-1.44 0.34,-2.91 0.46,-4.37 0.16,-1.88 0.11,-3.76 -0.31,-5.61 -0.18,-0.79 -0.39,-1.59 -0.91,-2.23998 -0.24,-0.3 -0.38,-0.32 -0.56,0 C 18.53,10.31 18.24,10.89 18.06,11.49 c -0.58,2.02 -0.58,4.08 -0.46,6.16 0.13,2.26 0.4,4.49 0.88,6.7 0.15,0.68 0.36,1.35 0.55,2.02 z m -1.8,-0.34 c 0,0 0.03,-0.04 0.04,-0.06 -0.24,-1.22 -0.52,-2.44 -0.71,-3.67 -0.33,-2.13 -0.53,-4.27 -0.54,-6.43 0,-1.33 0.07,-2.65 0.38,-3.95 0.16,-0.67 0.35,-1.33 0.53,-2.00998 -0.08,0.03 -0.17,0.05 -0.26,0.08998 -1.29,0.56 -2.3,1.44 -3,2.66 -0.84,1.45 -0.98,3 -0.69,4.63 0.45,2.57 1.36,4.96 2.85,7.1 0.41,0.58 0.92,1.09 1.39,1.63 z M 21.23,9.89002 C 21.27,10 21.29,10.05 21.3,10.1 c 0.57,1.5 0.8,3.06 0.86,4.64 0.06,1.67 0,3.34 -0.21,5 -0.19,1.46 -0.4,2.92 -0.63,4.38 -0.1,0.62 -0.26,1.22 -0.4,1.83 0.39,-0.31 0.75,-0.64 1.05,-1.01 1.43,-1.77 2.3,-3.81 2.9,-5.98 0.36,-1.3 0.64,-2.62 0.44,-3.98 -0.33,-2.3 -1.59,-3.92 -3.67,-4.92 C 21.53,10.01 21.41,9.97002 21.23,9.91002 Z M 17.55,27.9 c -0.01,0.1 -0.02,0.14 -0.02,0.19 0,2.94 0,5.88 0,8.82 0,0.53 0.24,0.93 0.66,1.23 0.51,0.35 1.06,0.39 1.61,0.12 0.56,-0.28 0.86,-0.75 0.86,-1.4 0,-2.89 0,-5.78 0,-8.67 0,-0.08 -0.02,-0.15 -0.03,-0.27 -1.04,0.42 -2.05,0.43 -3.1,-0.01 z"
       fill="currentColor"
       id="path240" />
    <path
       d="m 32.18,18.2 v -0.41 c 0,-2.48 0,-4.95 0,-7.43 0,-1.23997 0.74,-2.11997 1.96,-2.33997 1.19,-0.21 2.47,0.82 2.52,2.02997 0,0.19 0.01,0.38 0.01,0.58 0,9.42 0,18.84 0,28.26 0,0.12 0,0.25 0,0.37 -0.03,0.62 -0.62,0.94 -1.14,0.58 -0.7,-0.48 -1.4,-0.96 -2.03,-1.52 -2.21,-2 -3.59,-4.5 -4.15,-7.42 -0.14,-0.75 -0.22,-1.52 -0.22,-2.29 -0.02,-3.18 -0.01,-6.36 0,-9.53 0,-0.59 0.27,-0.87 0.87,-0.88 0.71,-0.01 1.42,0 2.19,0 z m 3.03,19.68 V 19.7 h -4.63 c 0,0.1 -0.01,0.18 -0.01,0.26 0,2.81 -0.03,5.61 0.02,8.42 0.02,1.02 0.15,2.05 0.39,3.04 0.64,2.62 2.08,4.75 4.23,6.47 z m 0.03,-19.7 c 0,-0.29 0,-0.55 0,-0.81 0,-2.34 0,-4.68 0,-7.02 0,-0.51997 -0.31,-0.86997 -0.78,-0.88997 -0.52,-0.02 -0.84,0.36 -0.84,0.99997 0,2.46 0,4.93 0,7.39 0,0.1 0.01,0.2 0.02,0.32 h 1.6 z"
       fill="currentColor"
       id="path242" />
  </g>
</svg>

<svg width="48" height="48" viewBox="0 0 48 48" fill="none" xmlns="http://www.w3.org/2000/svg">
<path d="M26.88 15.61C26.81 17.99 26.22 20.03 25.39 22.01C24.71 23.63 23.88 25.17 22.63 26.44C22.3 26.77 22.18 27.09 22.18 27.55C22.2 30.59 22.18 33.62 22.2 36.66C22.21 38.36 21.18 39.37 20.21 39.73C18.14 40.5 15.98 39.01 16 36.7C16.03 33.58 16 30.46 16.01 27.34C16.01 27.02 15.92 26.8 15.69 26.57C14.32 25.2 13.42 23.52 12.7 21.75C12.11 20.32 11.7 18.83 11.44 17.3C10.74 13.07 13.18 9.49002 16.78 8.36002C21.21 6.97002 25.85 9.74002 26.72 14.3C26.81 14.8 26.85 15.31 26.88 15.61ZM19.02 26.37C19.02 26.37 19.09 26.37 19.13 26.36C19.17 26.26 19.23 26.16 19.26 26.05C19.57 24.7 19.94 23.35 20.16 21.98C20.39 20.54 20.5 19.07 20.62 17.61C20.78 15.73 20.73 13.85 20.31 12C20.13 11.21 19.92 10.41 19.4 9.76002C19.16 9.46002 19.02 9.44002 18.84 9.76002C18.53 10.31 18.24 10.89 18.06 11.49C17.48 13.51 17.48 15.57 17.6 17.65C17.73 19.91 18 22.14 18.48 24.35C18.63 25.03 18.84 25.7 19.03 26.37H19.02ZM17.22 26.03C17.22 26.03 17.25 25.99 17.26 25.97C17.02 24.75 16.74 23.53 16.55 22.3C16.22 20.17 16.02 18.03 16.01 15.87C16.01 14.54 16.08 13.22 16.39 11.92C16.55 11.25 16.74 10.59 16.92 9.91002C16.84 9.94002 16.75 9.96002 16.66 10C15.37 10.56 14.36 11.44 13.66 12.66C12.82 14.11 12.68 15.66 12.97 17.29C13.42 19.86 14.33 22.25 15.82 24.39C16.23 24.97 16.74 25.48 17.21 26.02L17.22 26.03ZM21.23 9.89002C21.27 10 21.29 10.05 21.3 10.1C21.87 11.6 22.1 13.16 22.16 14.74C22.22 16.41 22.16 18.08 21.95 19.74C21.76 21.2 21.55 22.66 21.32 24.12C21.22 24.74 21.06 25.34 20.92 25.95C21.31 25.64 21.67 25.31 21.97 24.94C23.4 23.17 24.27 21.13 24.87 18.96C25.23 17.66 25.51 16.34 25.31 14.98C24.98 12.68 23.72 11.06 21.64 10.06C21.53 10.01 21.41 9.97002 21.23 9.91002V9.89002ZM17.55 27.9C17.54 28 17.53 28.04 17.53 28.09C17.53 31.03 17.53 33.97 17.53 36.91C17.53 37.44 17.77 37.84 18.19 38.14C18.7 38.49 19.25 38.53 19.8 38.26C20.36 37.98 20.66 37.51 20.66 36.86C20.66 33.97 20.66 31.08 20.66 28.19C20.66 28.11 20.64 28.04 20.63 27.92C19.59 28.34 18.58 28.35 17.53 27.91L17.55 27.9Z" fill="currentColor"/>
<path d="M32.18 18.2V17.79C32.18 15.31 32.18 12.84 32.18 10.36C32.18 9.12003 32.92 8.24003 34.14 8.02003C35.33 7.81003 36.61 8.84003 36.66 10.05C36.66 10.24 36.67 10.43 36.67 10.63C36.67 20.05 36.67 29.47 36.67 38.89C36.67 39.01 36.67 39.14 36.67 39.26C36.64 39.88 36.05 40.2 35.53 39.84C34.83 39.36 34.13 38.88 33.5 38.32C31.29 36.32 29.91 33.82 29.35 30.9C29.21 30.15 29.13 29.38 29.13 28.61C29.11 25.43 29.12 22.25 29.13 19.08C29.13 18.49 29.4 18.21 30 18.2C30.71 18.19 31.42 18.2 32.19 18.2H32.18ZM35.21 37.88V19.7H30.58C30.58 19.8 30.57 19.88 30.57 19.96C30.57 22.77 30.54 25.57 30.59 28.38C30.61 29.4 30.74 30.43 30.98 31.42C31.62 34.04 33.06 36.17 35.21 37.89V37.88ZM35.24 18.18C35.24 17.89 35.24 17.63 35.24 17.37C35.24 15.03 35.24 12.69 35.24 10.35C35.24 9.83003 34.93 9.48003 34.46 9.46003C33.94 9.44003 33.62 9.82003 33.62 10.46C33.62 12.92 33.62 15.39 33.62 17.85C33.62 17.95 33.63 18.05 33.64 18.17H35.24V18.18Z" fill="currentColor"/>
</svg>
